X:41
T:Frieze Britches
Z: id:dc-jig-35
M:6/8
L:1/8
K:D Mixolydian
E|FED EFG|AdB cAG|A3 BAG|FAF GED|!
FED EFG|AdB cAG|F3 GEC|DED D2:|!
A|d2e fed|e2d cAG|A3 BAG|FAF GED|!
|d2e fed|e2d cAG|FAF GEC|DED D2:|!
E|DED c3|AdB cAG|AB^c dcd|fed cAF|!
DED c3|AdB cAG|F3 GEC|DED D2:|!
B|Add fdd|add fdd|^c2d eAA|fAA gfe|!
Add fdd|add fdd|faf ge^c|ed^c d2:|!
e|fed ed^c|d3 cAG|A3 BAG|F3 GED|!
[1 fed ed^c|d3 cAG|F3 GEC|DED D2:|!
[2 f3 g3|afd cAG|F3 GEC|DED D2|]!

